X:214
T:Pay Me The Money Down
M:6/8
L:1/8
Q:1/4=3D100
K:G
d|\
BdB AcA|GBG D3|GGG d2B|A3 z2d|
(Bd)B (Ac)A|(GB)G D3|DDD B2A|G3 z2||
